**harm	**harte	**timestamp	**phrase	**leadinstrument	**kern
*M4/4	*M4/4	*	*	*	*
*A:	*A:	*	*	*	*A:
1r;	N	0	.	r	1r;
=1	=1	=1	=1	=1	=1
*>A2_intro	*>A2_intro	*>A2_intro	*>A2_intro	*>A2_intro	*>A2_intro
4r	N	0.557	newline	piano	4r
4V	E:maj	1.085	.	piano	4E 4g# 4b
4vi	F#:min	1.613	.	piano	4F# 4a 4cc#
4Vb	E:maj/3	2.141	.	piano	4e 4G# 4b
=2	=2	=2	=2	=2	=2
1I	A:maj	2.669	.	piano	1A 1cc# 1ee
=3	=3	=3	=3	=3	=3
1V	E:maj	4.78	.	piano	1E 1g# 1b
=4	=4	=4	=4	=4	=4
1IV	D:maj	6.892	.	piano	1D 1f# 1a
=5	=5	=5	=5	=5	=5
1VI7	F#:7	9.003	.	piano	1F# 1a# 1cc# 1ee
=6	=6	=6	=6	=6	=6
1ii7	B:min7	11.114	.	piano	1B 1dd 1ff# 1aa
=7	=7	=7	=7	=7	=7
1V	E:maj	13.226	.	piano	1E 1g# 1b
=8	=8	=8	=8	=8	=8
*>A_verse	*>A_verse	*>A_verse	*>A_verse	*>A_verse	*>A_verse
1I	A:maj	15.337	newline	voice	1A 1cc# 1ee
=9	=9	=9	=9	=9	=9
1V	E:maj	17.469	.	voice	1E 1g# 1b
=10	=10	=10	=10	=10	=10
1IV	D:maj	19.601	.	voice	1D 1f# 1a
=11	=11	=11	=11	=11	=11
1VI7	F#:7	21.733	.	voice	1F# 1a# 1cc# 1ee
=12	=12	=12	=12	=12	=12
1ii7	B:min7	23.865	.	voice	1B 1dd 1ff# 1aa
=13	=13	=13	=13	=13	=13
1V	E:maj	25.997	.	voice	1E 1g# 1b
=14	=14	=14	=14	=14	=14
1I	A:maj	28.129	newline	voice	1A 1cc# 1ee
=15	=15	=15	=15	=15	=15
1V	E:maj	30.271	.	voice	1E 1g# 1b
=16	=16	=16	=16	=16	=16
1IV	D:maj	32.412	.	voice	1D 1f# 1a
=17	=17	=17	=17	=17	=17
1VI7	F#:7	34.554	.	voice	1F# 1a# 1cc# 1ee
=18	=18	=18	=18	=18	=18
1ii7	B:min7	36.696	.	voice	1B 1dd 1ff# 1aa
=19	=19	=19	=19	=19	=19
1V	E:maj	38.837	.	voice	1E 1g# 1b
=20	=20	=20	=20	=20	=20
*>B_chorus	*>B_chorus	*>B_chorus	*>B_chorus	*>B_chorus	*>B_chorus
2I	A:maj	40.979	newline	voice	2A 2cc# 2ee
2IV	D:maj	42.053	.	voice	2D 2f# 2a
=21	=21	=21	=21	=21	=21
1V	E:maj	43.128	.	voice	1E 1g# 1b
=22	=22	=22	=22	=22	=22
2I	A:maj	45.277	.	voice	2A 2cc# 2ee
2IV	D:maj	46.351	.	voice	2D 2f# 2a
=23	=23	=23	=23	=23	=23
1V	E:maj	47.425	.	voice	1E 1g# 1b
=24	=24	=24	=24	=24	=24
2I	A:maj	49.574	newline	voice	2A 2cc# 2ee
2IV	D:maj	50.633	.	voice	2D 2f# 2a
=25	=25	=25	=25	=25	=25
1V	E:maj	51.691	.	voice	1E 1g# 1b
=26	=26	=26	=26	=26	=26
2I	A:maj	53.808	.	voice	2A 2cc# 2ee
2IV	D:maj	54.866	.	voice	2D 2f# 2a
=27	=27	=27	=27	=27	=27
1V	E:maj	55.924	.	voice	1E 1g# 1b
=28	=28	=28	=28	=28	=28
1IV	D:maj	58.041	newline	piano	1D 1f# 1a
=29	=29	=29	=29	=29	=29
1IV	D:maj	60.205	.	piano	1D 1f# 1a
=30	=30	=30	=30	=30	=30
*>A_verse	*>A_verse	*>A_verse	*>A_verse	*>A_verse	*>A_verse
1I	A:maj	62.369	newline	voice	1A 1cc# 1ee
=31	=31	=31	=31	=31	=31
1V	E:maj	64.523	.	voice	1E 1g# 1b
=32	=32	=32	=32	=32	=32
1IV	D:maj	66.676	.	voice	1D 1f# 1a
=33	=33	=33	=33	=33	=33
1VI7	F#:7	68.829	.	voice	1F# 1a# 1cc# 1ee
=34	=34	=34	=34	=34	=34
1ii7	B:min7	70.982	.	voice	1B 1dd 1ff# 1aa
=35	=35	=35	=35	=35	=35
1V	E:maj	73.135	.	voice	1E 1g# 1b
=36	=36	=36	=36	=36	=36
1I	A:maj	75.288	newline	voice	1A 1cc# 1ee
=37	=37	=37	=37	=37	=37
1V	E:maj	77.424	.	voice	1E 1g# 1b
=38	=38	=38	=38	=38	=38
1IV	D:maj	79.559	.	voice	1D 1f# 1a
=39	=39	=39	=39	=39	=39
1VI7	F#:7	81.694	.	voice	1F# 1a# 1cc# 1ee
=40	=40	=40	=40	=40	=40
1ii7	B:min7	83.83	.	voice	1B 1dd 1ff# 1aa
=41	=41	=41	=41	=41	=41
1V	E:maj	85.965	.	voice	1E 1g# 1b
=42	=42	=42	=42	=42	=42
*>B_chorus	*>B_chorus	*>B_chorus	*>B_chorus	*>B_chorus	*>B_chorus
2I	A:maj	88.1	newline	voice	2A 2cc# 2ee
2IV	D:maj	89.179	.	voice	2D 2f# 2a
=43	=43	=43	=43	=43	=43
1V	E:maj	90.257	.	voice	1E 1g# 1b
=44	=44	=44	=44	=44	=44
2I	A:maj	92.414	.	voice	2A 2cc# 2ee
2IV	D:maj	93.493	.	voice	2D 2f# 2a
=45	=45	=45	=45	=45	=45
1V	E:maj	94.571	.	voice	1E 1g# 1b
=46	=46	=46	=46	=46	=46
2I	A:maj	96.728	newline	voice	2A 2cc# 2ee
2IV	D:maj	97.803	.	voice	2D 2f# 2a
=47	=47	=47	=47	=47	=47
1V	E:maj	98.878	.	voice	1E 1g# 1b
=48	=48	=48	=48	=48	=48
2I	A:maj	101.028	.	voice	2A 2cc# 2ee
2IV	D:maj	102.103	.	voice	2D 2f# 2a
=49	=49	=49	=49	=49	=49
1V	E:maj	103.178	.	voice	1E 1g# 1b
=50	=50	=50	=50	=50	=50
1IV	D:maj	105.328	newline	piano	1D 1f# 1a
=51	=51	=51	=51	=51	=51
1IV	D:maj	107.478	.	piano	1D 1f# 1a
=52	=52	=52	=52	=52	=52
1III	C#:maj	109.628	.	piano	1C# 1e# 1g#
=53	=53	=53	=53	=53	=53
1III	C#:maj	111.778	.	piano	1C# 1e# 1g#
=54	=54	=54	=54	=54	=54
*>C_bridge	*>C_bridge	*>C_bridge	*>C_bridge	*>C_bridge	*>C_bridge
1vi	F#:min	113.928	newline	voice	1F# 1a 1cc#
=55	=55	=55	=55	=55	=55
1vi	F#:min	116.062	.	voice	1F# 1a 1cc#
=56	=56	=56	=56	=56	=56
1ii7	B:min7	118.195	.	voice	1B 1dd 1ff# 1aa
=57	=57	=57	=57	=57	=57
1V	E:maj	120.329	.	voice	1E 1g# 1b
=58	=58	=58	=58	=58	=58
*>A2_solo	*>A2_solo	*>A2_solo	*>A2_solo	*>A2_solo	*>A2_solo
1I	A:maj	122.462	newline	guitar	1A 1cc# 1ee
=59	=59	=59	=59	=59	=59
1V	E:maj	124.606	.	guitar	1E 1g# 1b
=60	=60	=60	=60	=60	=60
1IV	D:maj	126.75	.	guitar	1D 1f# 1a
=61	=61	=61	=61	=61	=61
1VI7	F#:7	128.894	.	guitar	1F# 1a# 1cc# 1ee
=62	=62	=62	=62	=62	=62
1ii7	B:min7	131.037	.	guitar	1B 1dd 1ff# 1aa
=63	=63	=63	=63	=63	=63
1V	E:maj	133.181	.	guitar	1E 1g# 1b
=64	=64	=64	=64	=64	=64
*>A_verse	*>A_verse	*>A_verse	*>A_verse	*>A_verse	*>A_verse
1I	A:maj	135.325	newline	voice	1A 1cc# 1ee
=65	=65	=65	=65	=65	=65
1V	E:maj	137.475	.	voice	1E 1g# 1b
=66	=66	=66	=66	=66	=66
1IV	D:maj	139.624	.	voice	1D 1f# 1a
=67	=67	=67	=67	=67	=67
1VI7	F#:7	141.774	.	voice	1F# 1a# 1cc# 1ee
=68	=68	=68	=68	=68	=68
1ii7	B:min7	143.924	.	voice	1B 1dd 1ff# 1aa
=69	=69	=69	=69	=69	=69
1V	E:maj	146.074	.	voice	1E 1g# 1b
=70	=70	=70	=70	=70	=70
1I	A:maj	148.223	newline	voice	1A 1cc# 1ee
=71	=71	=71	=71	=71	=71
1V	E:maj	150.356	.	voice	1E 1g# 1b
=72	=72	=72	=72	=72	=72
1IV	D:maj	152.488	.	voice	1D 1f# 1a
=73	=73	=73	=73	=73	=73
1VI7	F#:7	154.621	.	voice	1F# 1a# 1cc# 1ee
=74	=74	=74	=74	=74	=74
1ii7	B:min7	156.753	.	voice	1B 1dd 1ff# 1aa
=75	=75	=75	=75	=75	=75
1V	E:maj	158.885	.	voice	1E 1g# 1b
=76	=76	=76	=76	=76	=76
*>B_chorus	*>B_chorus	*>B_chorus	*>B_chorus	*>B_chorus	*>B_chorus
2I	A:maj	161.018	newline	voice	2A 2cc# 2ee
2IV	D:maj	162.094	.	voice	2D 2f# 2a
=77	=77	=77	=77	=77	=77
1V	E:maj	163.17	.	voice	1E 1g# 1b
=78	=78	=78	=78	=78	=78
2I	A:maj	165.323	.	voice	2A 2cc# 2ee
2IV	D:maj	166.399	.	voice	2D 2f# 2a
=79	=79	=79	=79	=79	=79
1V	E:maj	167.475	.	voice	1E 1g# 1b
=80	=80	=80	=80	=80	=80
2I	A:maj	169.628	newline	voice	2A 2cc# 2ee
2IV	D:maj	170.692	.	voice	2D 2f# 2a
=81	=81	=81	=81	=81	=81
1V	E:maj	171.756	.	voice	1E 1g# 1b
=82	=82	=82	=82	=82	=82
2I	A:maj	173.885	.	voice	2A 2cc# 2ee
2IV	D:maj	174.95	.	voice	2D 2f# 2a
=83	=83	=83	=83	=83	=83
1V	E:maj	176.014	.	voice	1E 1g# 1b
=84	=84	=84	=84	=84	=84
*>B_fadeout	*>B_fadeout	*>B_fadeout	*>B_fadeout	*>B_fadeout	*>B_fadeout
2I	A:maj	178.143	newline	voice	2A 2cc# 2ee
2IV	D:maj	179.21	.	voice	2D 2f# 2a
=85	=85	=85	=85	=85	=85
1V	E:maj	180.277	.	voice	1E 1g# 1b
=86	=86	=86	=86	=86	=86
2I	A:maj	182.412	.	voice	2A 2cc# 2ee
2IV	D:maj	183.48	.	voice	2D 2f# 2a
=87	=87	=87	=87	=87	=87
1V	E:maj	184.547	.	voice	1E 1g# 1b
=88	=88	=88	=88	=88	=88
2I	A:maj	186.682	newline	voice	2A 2cc# 2ee
2IV	D:maj	187.536	.	voice	2D 2f# 2a
=89	=89	=89	=89	=89	=89
1V	E:maj	188.39	.	voice	1E 1g# 1b
=90	=90	=90	=90	=90	=90
2I	A:maj	190.098	.	voice	2A 2cc# 2ee
2IV	D:maj	190.953	.	voice	2D 2f# 2a
=91	=91	=91	=91	=91	=91
1V	E:maj	191.807	.	voice	1E 1g# 1b
1r;	N	193.515	.	r	1r;
1r;	N	197.878	.	r	1r;
*-	*-	*-	*-	*-	*-
!!!OTL: Count On Me
!!!COC: Jefferson Starship
!!!BillboardChartDate: 1978/04/15
!!!BillboardPeak: 8
!!!BillboardWeeksOnChart: 14
!!!SampleTargetRank: 18
!!!SampleActualRank: 16
!!!SampleID#: 1045
!!!RDF**harmony: **recip + pitch class of root + harmonic quality
!!!RDF**harte: Chris Harte's syntax, used by MIREX
!!!RDF**phrase: newline = linebreak in original McGill transcription
!!!RDF**timestamp: McGill audio timestamp in seconds
!!!RDF**leadinstrument: original McGill primary instrumentation annotation
!!!RDT: 2017/01/12/
!!!ENC: Nathaniel Condit-Schultz
!!!EST: Awating manual error checking and editing.
